X: 1685
T: the Northern Troupe   #2
R: hornpipe, reel
%S: s:4 b:16(4+4+4+4)
B: O'Neill's 1850 #1685
O: F.O'Neill
M: 2/4
L: 1/16
K: G
(3ABc \
| d>BG>B d>Be>B | d>cB>c  E2z2 | c>AF>A c>Ad>A | c>BA>BD4 (3ABc |
| d>BG>B d>Bg>d | f>e^d>e A2A>G | F>Gg>e d>cE>F | G2g2 G2 :: (Bd) |
|: g2d>c B>GG2 | G>AB>G A2B>A | G>AB>c [1,3 d>Bd>g | f>ga>f g>de>f :|[2,4 d2g2 | f>ga>f g2 :|
